icons/4_Outdated/OneSignal v1.svg

<svg xmlns="http://www.w3.org/2000/svg" width="1024" height="1024" fill="none">
   <g clip-path="url(#a)">
      <path fill="#FF837D" d="M512 1024c282.77 0 512-229.23 512-512S794.77 0 512 0 0 229.23 0 512s229.23 512 512 512Z"/>
      <path fill="#fff" d="M512.4 254.5c-146.8 0-266.3 125.6-266.3 279.9 0 98.3 48.9 184.6 120.9 234.5l1.92 1.42c36.53-21.89 76.22-37.5 120.61-43.84v-23.65h-.03V557.1h-14.4v-30.3h72v199.7c40.3 6.1 76.3 21.2 109.4 42.4 73.4-49.9 120.9-136.2 120.9-234.5 1.3-154.3-118.2-279.9-265-279.9Zm0 196.7c-43.2 0-79.2 37.8-79.2 83.2 0 31.8 17.3 60.5 43.2 74.1v16.6c-33.1-15.1-57.6-49.9-57.6-90.8 0-54.5 41.7-98.3 93.6-98.3 51.9 0 93.6 43.9 93.6 98.3 0 34.8-17.3 65.1-43.2 83.2v-18.2c17.3-16.5 28.8-39.2 28.8-64.9 0-45.4-36-83.2-79.2-83.2Zm50.4 248.1v-16.6c59-21.2 100.8-80.2 100.8-149.8 0-86.2-67.7-157.4-151.1-157.4-83.4 0-151.1 71.1-151.1 158.9 0 74.1 48.9 137.7 115.1 154.3v15.1C403.1 687.2 347 617.6 347 534.3c0-96.8 73.4-174 165.5-174S678 437.5 678 534.3c-.1 77.3-49 143.8-115.2 165Z"/>
   </g>
   <defs>
      <clipPath id="a">
         <path fill="#fff" d="M0 0h1024v1024H0z"/>
      </clipPath>
   </defs>
</svg>

<svg width="1024" height="1024" viewBox="0 0 1024 1024" fill="none" xmlns="http://www.w3.org/2000/svg">
<g clip-path="url(#clip0_2_3021)">
<path d="M512 1024C794.77 1024 1024 794.77 1024 512C1024 229.23 794.77 0 512 0C229.23 0 0 229.23 0 512C0 794.77 229.23 1024 512 1024Z" fill="#FF837D"/>
<path d="M512.4 254.5C365.6 254.5 246.1 380.1 246.1 534.4C246.1 632.7 295 719 367 768.9L368.92 770.32C405.45 748.43 445.14 732.82 489.53 726.48V702.83H489.5V557.1H475.1V526.8H547.1V726.5C587.4 732.6 623.4 747.7 656.5 768.9C729.9 719 777.4 632.7 777.4 534.4C778.7 380.1 659.2 254.5 512.4 254.5ZM512.4 451.2C469.2 451.2 433.2 489 433.2 534.4C433.2 566.2 450.5 594.9 476.4 608.5V625.1C443.3 610 418.8 575.2 418.8 534.3C418.8 479.8 460.5 436 512.4 436C564.3 436 606 479.9 606 534.3C606 569.1 588.7 599.4 562.8 617.5V599.3C580.1 582.8 591.6 560.1 591.6 534.4C591.6 489 555.6 451.2 512.4 451.2ZM562.8 699.3V682.7C621.8 661.5 663.6 602.5 663.6 532.9C663.6 446.7 595.9 375.5 512.5 375.5C429.1 375.5 361.4 446.6 361.4 534.4C361.4 608.5 410.3 672.1 476.5 688.7V703.8C403.1 687.2 347 617.6 347 534.3C347 437.5 420.4 360.3 512.5 360.3C604.6 360.3 678 437.5 678 534.3C677.9 611.6 629 678.1 562.8 699.3Z" fill="white"/>
</g>
<defs>
<clipPath id="clip0_2_3021">
<rect width="1024" height="1024" fill="white"/>
</clipPath>
</defs>
</svg>
